icons/svg/cow.svg

﻿<?xml version="1.0" encoding="utf-8"?>
<!DOCTYPE svg PUBLIC "-//W3C//DTD SVG 1.1//EN" "http://www.w3.org/Graphics/SVG/1.1/DTD/svg11.dtd">
<svg xmlns="http://www.w3.org/2000/svg" xmlns:xlink="http://www.w3.org/1999/xlink" version="1.1" baseProfile="full" width="24" height="24" viewBox="0 0 24.00 24.00" enable-background="new 0 0 24.00 24.00" xml:space="preserve">
	<path fill="#000000" fill-opacity="1" stroke-linejoin="round" d="M 10.5,18C 10.7761,18 11,18.2239 11,18.5C 11,18.7761 10.7761,19 10.5,19C 10.2239,19 10,18.7761 10,18.5C 10,18.2239 10.2239,18 10.5,18 Z M 13.5,18C 13.7761,18 14,18.2239 14,18.5C 14,18.7761 13.7761,19 13.5,19C 13.2239,19 13,18.7761 13,18.5C 13,18.2239 13.2239,18 13.5,18 Z M 10,11C 10.5523,11 11,11.4477 11,12C 11,12.5523 10.5523,13 10,13C 9.44771,13 9,12.5523 9,12C 9,11.4477 9.44771,11 10,11 Z M 14,11C 14.5523,11 15,11.4477 15,12C 15,12.5523 14.5523,13 14,13C 13.4477,13 13,12.5523 13,12C 13,11.4477 13.4477,11 14,11 Z M 18,18C 18,20.2091 15.3137,22 12,22C 8.68629,22 6,20.2091 6,18C 6,17.0995 6.44633,16.2685 7.19956,15.6C 6.44633,14.5972 6,13.3507 6,12L 6.12328,10.7841C 5.5829,10.9306 4.92739,10.9307 4.39927,10.7793C 3.38155,10.4875 1.84022,9.34686 2.06856,8.55052C 2.29691,7.75419 4.20846,7.60368 5.22618,7.8955C 5.82037,8.06588 6.4496,8.48445 6.82498,8.96181L 7.39395,8.15474C 6.79007,7.05291 7,4 10,3L 9.90801,3.13772L 9.90552,3.14172C 9.63314,3.58004 8.91253,4.97457 9.66877,6.46972C 10.3855,6.16724 11.1732,6.00001 12,6.00001C 12.8268,6.00001 13.6145,6.16724 14.3312,6.46972C 15.0875,4.97457 14.3669,3.58003 14.0945,3.14171L 14,3C 17,4 17.2099,7.05292 16.606,8.15474L 17.175,8.96181C 17.5504,8.48445 18.1796,8.06588 18.7738,7.8955C 19.7915,7.60368 21.7031,7.75419 21.9314,8.55053C 22.1598,9.34686 20.6184,10.4875 19.6007,10.7793C 19.0726,10.9307 18.4171,10.9306 17.8767,10.7841L 18,12C 18,13.3507 17.5537,14.5972 16.8004,15.6C 17.5537,16.2685 18,17.0995 18,18 Z M 12,16C 9.79085,16 7.99999,16.8954 7.99999,18C 7.99999,19.1046 9.79085,20 12,20C 14.2091,20 16,19.1046 16,18C 16,16.8954 14.2091,16 12,16 Z M 12,14C 13.1223,14 14.1727,14.2054 15.0711,14.563C 15.651,13.8689 16,12.9752 16,12C 16,9.79088 14.2091,8.00001 12,8.00001C 9.79086,8.00001 7.99999,9.79088 7.99999,12C 7.99999,12.9752 8.34898,13.8689 8.92886,14.563C 9.82727,14.2054 10.8776,14 12,14 Z M 14.0945,3.14171L 14.092,3.13773 Z "/>
</svg>

<svg xmlns="http://www.w3.org/2000/svg" version="1.1" baseProfile="full" width="24" height="24" viewBox="0 0 24.00 24.00" xml:space="preserve"><path fill="#000" fill-opacity="1" stroke-linejoin="round" d="M10.5 18c.276 0 .5.224.5.5s-.224.5-.5.5-.5-.224-.5-.5.224-.5.5-.5zm3 0c.276 0 .5.224.5.5s-.224.5-.5.5-.5-.224-.5-.5.224-.5.5-.5zM10 11c.552 0 1 .448 1 1s-.448 1-1 1-1-.448-1-1 .448-1 1-1zm4 0c.552 0 1 .448 1 1s-.448 1-1 1-1-.448-1-1 .448-1 1-1zm4 7c0 2.21-2.686 4-6 4s-6-1.79-6-4c0-.9.446-1.732 1.2-2.4C6.446 14.597 6 13.35 6 12l.123-1.216c-.54.147-1.196.147-1.724-.005-1.018-.292-2.56-1.433-2.33-2.23.227-.796 2.138-.946 3.156-.655.594.17 1.224.59 1.6 1.067l.568-.807C6.79 7.053 7 4 10 3l-.092.138-.002.004c-.273.438-.993 1.833-.237 3.328C10.385 6.167 11.172 6 12 6c.827 0 1.614.167 2.33.47.758-1.495.037-2.89-.236-3.328L14 3c3 1 3.21 4.053 2.606 5.155l.57.807c.374-.478 1.004-.896 1.598-1.066 1.017-.292 2.93-.142 3.157.655.23.797-1.312 1.938-2.33 2.23-.527.15-1.183.15-1.723.004L18 12c0 1.35-.446 2.597-1.2 3.6.754.668 1.2 1.5 1.2 2.4zm-6-2c-2.21 0-4 .895-4 2s1.79 2 4 2 4-.895 4-2-1.79-2-4-2zm0-2c1.122 0 2.173.205 3.07.563.58-.694.93-1.588.93-2.563 0-2.21-1.79-4-4-4s-4 1.79-4 4c0 .975.35 1.87.93 2.563C9.826 14.205 10.877 14 12 14zm2.095-10.858l-.003-.004z"/></svg>
